X:1
T:The New Jerusalem Awaits
T:Eternal Father, Strong to Save (The "Navy Hymn")
C:John Bacchus Dykes [Melita]
%%score [ ( 1 2 ) ( 3 4 ) ]
L:1/8
Q:1/4=100
M:4/4
K:C
V:1 treble nm="MusicXML Part"
V:2 treble 
V:3 bass nm="MusicXML Part"
V:4 bass 
V:1
 C2 | [CE]3 [CE] [EG]2 [EG]2 | A2 A2 G2 G2 | c2 d2 B2 G2 | [DG]2 [D^F]2 !fermata![DG]2 [B,D]2 | %5
w: 1.  E-|ter- nal Fa- ther,|strong to save, Whose|arm hath bound the|rest- less wave, Who|
w: 2.  O|Christ!- Whose voice the|wa- ters heard And|hushed their rag- ing|at Thy word, Who|
w: 3.  Most|Ho- ly Spir- it!|Who didst brood Up-|on the cha- os|dark and rude, And|
w: 4.  O|Trin- i- ty of|love and pow'r! Our|breth- ren shield in|dan- ger's hour; From|
 [D=F]3 [DF] [CE]2 [CE]2 | [EG]3 [EG] [D^F]2 B2 | G2 ^F2 E2 A2 | G2 [^D^F]2 !fermata!E2 E2 | %9
w: bidd'st the might- y|o- cean deep Its|own ap- point- ed|lim- its keep; Oh,|
w: walk- ed'st on the|foam- ing deep, And|calm a- midst its|rage didst sleep; Oh,|
w: bid its an- gry|tu- mult cease, And|give, for wild con-|fu- sion, peace; Oh,|
w: rock and tem- pest,|fire and foe, Pro-|tect them where- so-|e'er they go; Thus|
 [_B,E]3 [B,E] [A,=F]2 [CF]2 | [C^F]3 [CF] [B,G]2 [=FG]2 | [EG]2 [DA]2 [EG]2 [CE]2 | D3 C C2 x2 |] %13
w: hear us when we|cry to Thee, For|those in per- il|on the sea.|
w: hear us when we|cry to Thee, For|those in per- il|on the sea.|
w: hear us when we|cry to Thee, For|those in per- il|on the sea.|
w: ev- er- more shall|rise to Thee Glad|hymns of praise from|land and sea.|
V:2
 C2 | x8 | F2 F2 E2 G2 | G3 ^F G2 DE | x8 | x8 | x6 ^F2 | E3 ^D E3 ^F | E2 x2 E2 B,2 | x8 | x8 | %11
 x8 | B,3 C C2 x2 |] %13
V:3
 [C,E,]2 | [C,G,]3 [C,G,] C3 B, | [F,A,][G,B,] [A,C][B,D] [CE]2 [B,D]2 | %3
 [A,C]2 [D,A,]2 [G,B,]2 [B,,D][C,C] | A,2 A,2 !fermata!B,2 G,2 | [B,,G,]3 [B,,G,] [C,G,]2 [C,G,]2 | %6
 [^C,A,]3 [C,A,] [D,A,]2 [^D,B,]2 | [E,B,]2 [^F,A,]2 [G,B,]2 [A,C]2 | B,2 B,2 !fermata!G,2 G,2 | %9
 [C,G,]3 [C,G,] F,2 A,2 | %10
"^Words:  William Whiting  (1860)\n(Gen. 1:2; Job 38:8-11; Matt. 8:23-27; Mark 4:35-41; Luke 8:22-35)" [D,A,]3 [D,A,] G,2 [B,,D]2 | %11
 [C,C]2 [^F,,C]2 [G,,C]2 [G,,G,]2 | [G,,F,]3 [C,E,] [C,E,]2 x2 |] %13
V:4
 x2 | x4 C,2 C,2 | x8 | x8 | D,2 D,2 G,2 G,2 | x8 | x8 | x8 | B,2 B,,2 E,2 E,2 | x4 F,2 F,2 | %10
 x4 G,2 x2 | x8 | x8 |] %13

